X:1
T:Malaguena
T:Traditional
T:JLevine
%%score 1 2 3 4
L:1/8
M:3/4
K:C
V:1 treble-8 nm="Tenor Steel Drums" snm="T. St. Dr."
V:2 treble nm="Soprano Steel Drums" snm="S. St. Dr."
V:3 treble nm="Guitar Steel Drums" snm="Gtr. St. Dr."
V:4 bass nm="Bass Steel Drums" snm="B. St. Dr."
V:1
 z6 | z6 | a2 c'2 b2 | a2 g2 f2 | E2 ^G2 B2 | e2 e2 e2 | A2 A2 A2 | A2 G2 F2 | E2 z4 | !>!E2 z4 | %10
 A2 c2 e2 | A2 c2 e2 | G2 B2 d2 | G2 B2 d2 | F2 A2 c2 | F2 A2 c2 | E2 ^G2 B2 | d2 c2 B2 | %18
 A2 c2 e2 | A2 c2 e2 | G2 B2 d2 | G2 B2 d2 | F2 A2 c2 | F2 A2 c2 | E2 ^G2 B2 | d2 c2 B2 | %26
!fff! Ee ^Ge Be | Ee ^Ge Be | Ae ce Be | Ae Ge Fe | Ee ^Ge Be | Ee ^Ge Be | Ae ce Be | Ae Ge Fe | %34
 e2 z4 |!mf! E2 z4 | e2 ^f2 ^g2 |1 a2 z4 :|2 a6 |] %39
V:2
 E2 ^G2 B2 | E2 ^G2 B2 | a2 c'2 b2 | a2 g2 f2 | E2 ^G2 B2 | e2 e2 e2 | A2 A2 A2 | A2 G2 F2 | %8
 E2 z4 | !>!^G,2 z4 | A2 c2 e2 | A2 c2 e2 | G2 B2 d2 | G2 B2 d2 | F2 A2 c2 | F2 A2 c2 | E2 ^G2 B2 | %17
 d2 c2 B2 | A2 c2 e2 | A2 c2 e2 | G2 B2 d2 | G2 B2 d2 | F2 A2 c2 | F2 A2 c2 | E2 ^G2 B2 | %25
 d2 c2 B2 |!fff! Ee ^Ge Be | Ee ^Ge Be | Ae ce Be | Ae Ge Fe | Ee ^Ge Be | Ee ^Ge Be | Ae ce Be | %33
 Ae Ge Fe | e2 z4 |!mf! ^G,2 z4 | d2 d2 d2 |1 c2 z4 :|2 c6 |] %39
V:3
 z6 | E2 ^G2 B2 | z6 | z6 | e6 | E2 ^G2 B2 | A2 c2 B2 | A2 A2 A2 | E2 z4 | !>!^G,2 z4 | A6- | %11
 A2 B2 A2 | G6- | G2 A2 G2 | F6- | F2 G2 F2 | E2 E2 E2 | E2 E2 E2 | [Ac]2 [Ac]2 [Ac]2 | %19
 [Ac]2 [Bd]2 [Ac]2 | [GB]2 [GB]2 [GB]2 | [GB]2 [Ac]2 [GB]2 | [FA]2 [FA]2 [FA]2 | %23
 [FA]2 [GB]2 [FA]2 | [E^G]2 [E^G]2 [E^G]2 | [E^G]2 [E^G]2 [E^G]2 |!fff! Ee ^Ge Be | Ee ^Ge Be | %28
 Ae ce Be | Ae Ge Fe | Ee ^Ge Be | Ee ^Ge Be | Ae ce Be | Ae Ge Fe | e2 z4 |!mf! ^G,2 z4 | %36
 d2 d2 d2 |1 c2 z4 :|2 c6 |] %39
V:4
 z6 | E,,2 ^G,,2 B,,2 | z6 | z6 | E,6 | E,,2 ^G,,2 B,,2 | A,,2 C,2 B,,2 | A,,2 A,,2 A,,2 | %8
 B,,2 z4 | !>!E,,2 z4 | A,,6- | A,,2 B,,2 A,,2 | G,,6- | G,,2 A,,2 G,,2 | F,,6- | F,,2 G,,2 F,,2 | %16
 E,,2 E,,2 E,,2 | E,,2 E,,2 E,,2 | [A,,C,]2 [A,,C,]2 [A,,C,]2 | [A,,C,]2 [B,,D,]2 [A,,C,]2 | %20
 [G,,B,,]2 [G,,B,,]2 [G,,B,,]2 | [G,,B,,]2 [A,,C,]2 [G,,B,,]2 | [F,,A,,]2 [F,,A,,]2 [F,,A,,]2 | %23
 [F,,A,,]2 [G,,B,,]2 [F,,A,,]2 | [E,,^G,,]2 [E,,^G,,]2 [E,,^G,,]2 | %25
 [E,,^G,,]2 [E,,^G,,]2 [E,,^G,,]2 |!fff! E,E ^G,E B,E | E,E ^G,E B,E | A,E CE B,E | A,E G,E F,E | %30
 E,E ^G,E B,E | E,E ^G,E B,E | A,E CE B,E | A,E G,E F,E | E,2 z4 |!mf! E,,2 z4 | E,2 E,2 E,2 |1 %37
 A,,2 z4 :|2 A,,6 |] %39

